src/basic/200/u2191-up.svg

<svg width="45" height="64" viewBox="0 0 45 64" fill="none" xmlns="http://www.w3.org/2000/svg">
<path fill-rule="evenodd" clip-rule="evenodd" d="M22.85,1.14645l22,21.99995l-0.7071,0.7072l-21.1464,-21.1465v61.2929h-1v-61.29289l-21.14649,21.14649l-0.70711,-0.7072l21.99999,-21.99995l0.3536,-0.35356z" fill="black"/>
</svg>

<svg width="45" height="64" viewBox="0 0 45 64" fill="none" xmlns="http://www.w3.org/2000/svg">
<path fill-rule="evenodd" clip-rule="evenodd" d="M22.85 1.14645L44.85 23.1464L44.1429 23.8536L22.9965 2.7071L22.9965 64L21.9965 64L21.9965 2.70711L0.850014 23.8536L0.142907 23.1464L22.1429 1.14645L22.4965 0.792892L22.85 1.14645Z" fill="black"/>
</svg>
